X:1
T:Chiba, 77.78
T:Chiba, 77.78
T:James McGranahan, 1896
T:Public Domain Courtesy of the Cyber Hymnal™
C:James McGranahan, 1896
Z:Public Domain
Z:Courtesy of the Cyber Hymnal™
%%score ( 1 2 ) ( 3 4 )
L:1/8
Q:1/4=108
M:4/4
K:C
V:1 treble 
V:2 treble 
V:3 bass 
V:4 bass 
V:1
 C2 E2 G3 G | [FA]2 [FB]2 [Ec]4 | [Gd]3 [Gd] [Gd]2 [Gc]2 | [GB]2 [^FA]2 G4 | [DG]2 [GB]2 [Gd]2 G2 | %5
 [Gc]2 [Gf]2 [Ge]2 [Ec]>[Fd] | [Ge]4 [EG]2 [Gc]>[Ge] | [Fd]4 [Ec]4 |] %8
V:2
 C2 E2 G3 G | x8 | x8 | x4 (G2 D2) | x6 G2 | x8 | x8 | x8 |] %8
V:3
 C,2 E,2 G,3 [E,C] | [F,C]2 [D,G,]2 [C,G,]4 | [G,B,]3 [G,B,] [G,B,]2 [C,E]2 | %3
 [D,D]2 [D,C]2 [G,B,]4 | [G,B,]2 [G,D]2 [G,F]2 B,2 | [E,C]2 [D,B,]2 [C,C]2 [C,G,]>[C,C] | %6
 [C,C]4 [C,C]2 [E,C]>[C,C] | [G,B,]4 [C,C]4 |] %8
V:4
 C,2 E,2 G,3 x | x8 | x8 | x8 | x6 (G,F,) | x8 | x8 | x8 |] %8

